svg/card_off.svg

<svg xmlns="http://www.w3.org/2000/svg" viewBox="0 0 24 24"><path d="M21.88 18.68 7.2 4H20c1.11 0 2 .89 2 2v12c0 .24-.04.47-.12.68m-1.32 1.23h.01L2.39 1.73 1.11 3l1.54 1.54C2.25 4.9 2 5.42 2 6v12a2 2 0 0 0 2 2h14.11l2.73 2.73 1.27-1.27z"/></svg>

<?xml version="1.0" encoding="UTF-8"?><!DOCTYPE svg PUBLIC "-//W3C//DTD SVG 1.1//EN" "http://www.w3.org/Graphics/SVG/1.1/DTD/svg11.dtd"><svg xmlns="http://www.w3.org/2000/svg" xmlns:xlink="http://www.w3.org/1999/xlink" version="1.1" id="mdi-card-off" width="24" height="24" viewBox="0 0 24 24"><path d="M21.88 18.68L7.2 4H20C21.11 4 22 4.89 22 6V18C22 18.24 21.96 18.47 21.88 18.68M20.56 19.91L20.57 19.91L2.39 1.73L1.11 3L2.65 4.54C2.25 4.9 2 5.42 2 6V18C2 19.11 2.9 20 4 20H18.11L20.84 22.73L22.11 21.46L20.56 19.91Z" /></svg>
